brandFactory_export/1.Light/Alarma desactivada_1Light.svg

<?xml version="1.0" encoding="UTF-8"?>
<svg width="24px" height="24px" viewBox="0 0 24 24" version="1.1" xmlns="http://www.w3.org/2000/svg" xmlns:xlink="http://www.w3.org/1999/xlink">
    <title>1.Light/Alarma desactivada_1Light</title>
    <g id="Symbols" stroke="none" stroke-width="1" fill="none" fill-rule="evenodd">
        <g id="1.Light/Alarma-desactivada_1Light" fill="#5CB615" fill-rule="nonzero">
            <path d="M2.71764706,19.0890756 C4.79159664,16.5815126 4.58319328,12.8773109 4.5697479,12.7294118 L4.5697479,8.08067227 C4.5697479,6.94117647 4.73445378,5.93277311 5.05042017,5.05546218 L17.8403361,19.092437 L2.71764706,19.0890756 Z M13.7596639,21.9394958 C13.3327731,22.4033613 12.687395,22.6420168 11.8336134,22.6420168 C10.9798319,22.6420168 10.3344538,22.4067227 9.90756303,21.9462185 C9.3697479,21.3613445 9.28235294,20.5310924 9.27563025,20.0773109 L14.394958,20.0773109 C14.3848739,20.5378151 14.287395,21.3579832 13.7596639,21.9394958 L13.7596639,21.9394958 Z M6.56638655,2.76302521 C8.67058824,0.847058824 11.7731092,1.02857143 11.8033613,1.03193277 C11.8268908,1.03529412 11.8504202,1.03529412 11.8739496,1.03193277 C11.9042017,1.02857143 15.0067227,0.847058824 17.1109244,2.76302521 C18.4319328,3.96638655 19.1042017,5.75462185 19.1042017,8.08067227 L19.1042017,12.6991597 C19.0941176,12.8773109 18.8823529,16.5815126 20.9563025,19.0890756 L19.1915966,19.0890756 L5.51764706,4.08067227 C5.80336134,3.58655462 6.14621849,3.14285714 6.56638655,2.76302521 Z M22.5361345,22.7630252 L20.0857143,20.0739496 L22.1563025,20.0739496 C22.3680672,20.0739496 22.5596639,19.9428571 22.6302521,19.7478992 C22.7008403,19.5529412 22.6403361,19.3310924 22.4756303,19.2 C19.8672269,17.1193277 20.102521,12.8033613 20.1058824,12.7294118 L20.1058824,8.08067227 C20.1058824,5.46890756 19.3226891,3.43529412 17.7831933,2.03697479 C15.4638655,-0.0739495798 12.2369748,0.0268907563 11.8369748,0.0504201681 C11.4369748,0.0268907563 8.21008403,-0.0705882353 5.88403361,2.04033613 C5.47058824,2.41680672 5.11764706,2.84033613 4.81176471,3.30756303 L1.94789916,0.164705882 C1.75966387,-0.0369747899 1.44705882,-0.0571428571 1.23529412,0.124369748 C1.03361345,0.299159664 1.01008403,0.605042017 1.18487395,0.806722689 L1.19495798,0.816806723 L4.31092437,4.23529412 C3.82016807,5.32773109 3.56134454,6.60840336 3.56134454,8.07731092 L3.56134454,12.7563025 C3.56470588,12.8 3.8,17.1159664 1.19159664,19.1966387 C1.02689076,19.3243697 0.96302521,19.5462185 1.03697479,19.7445378 C1.11092437,19.9428571 1.30252101,20.0705882 1.51092437,20.0705882 L8.26386555,20.0705882 C8.26722689,20.6722689 8.39159664,21.7613445 9.14789916,22.5882353 C9.77310924,23.2739496 10.6739496,23.6201681 11.8302521,23.6201681 C12.9831933,23.6201681 13.8840336,23.2739496 14.5092437,22.5915966 C15.2655462,21.7680672 15.3966387,20.6823529 15.4033613,20.0705882 L18.7344538,20.0705882 L21.7798319,23.4151261 C21.9680672,23.6201681 22.2840336,23.6369748 22.492437,23.4554622 C22.6941176,23.2840336 22.7176471,22.9781513 22.5462185,22.7764706 C22.5462185,22.7731092 22.5394958,22.7697479 22.5361345,22.7630252 L22.5361345,22.7630252 Z" id="Alarma-desactivada_1Light"></path>
        </g>
    </g>
</svg>

<svg width="24" height="24" viewBox="0 0 24 24" xmlns="http://www.w3.org/2000/svg"><path d="M2.718 19.09c2.074-2.508 1.865-6.213 1.852-6.36V8.08c0-1.139.164-2.147.48-3.025l12.79 14.037-15.122-.003zm11.042 2.85c-.427.463-1.073.702-1.926.702-.854 0-1.5-.235-1.926-.696-.538-.585-.626-1.415-.632-1.869h5.119c-.01.46-.108 1.281-.635 1.862zM6.566 2.762c2.105-1.916 5.207-1.734 5.237-1.731a.248.248 0 00.07 0c.031-.003 3.134-.185 5.238 1.731 1.32 1.203 1.993 2.992 1.993 5.318v4.618c-.01.178-.222 3.883 1.852 6.39h-1.764L5.518 4.081a5.393 5.393 0 011.048-1.318zm15.97 20l-2.45-2.69h2.07a.504.504 0 00.474-.325.489.489 0 00-.154-.548c-2.609-2.08-2.373-6.397-2.37-6.47V8.08c0-2.611-.783-4.645-2.323-6.043-2.32-2.11-5.546-2.01-5.946-1.987-.4-.023-3.627-.12-5.953 1.99-.413.377-.766.8-1.072 1.268L1.948.165a.514.514 0 00-.713-.04.484.484 0 00-.05.682l.01.01 3.116 3.418c-.49 1.093-.75 2.373-.75 3.842v4.68c.004.043.239 4.359-2.37 6.44a.48.48 0 00-.154.548.505.505 0 00.474.326h6.753c.003.601.128 1.69.884 2.517.625.686 1.526 1.032 2.682 1.032 1.153 0 2.054-.346 2.68-1.028.756-.824.887-1.91.893-2.521h3.331l3.046 3.344a.511.511 0 00.712.04.483.483 0 00.054-.679c0-.003-.007-.006-.01-.013z" fill="#5CB615" fill-rule="nonzero"/></svg>
